Adwaita++-Light/panel/16/gpm-inhibit-invalid.svg

<svg height="16" width="16" xmlns="http://www.w3.org/2000/svg">
  <path d="m1.0195312 1c-1.34935132-.02591589-1.3632513 2.0055241-.0136718 1.9980469v10.9902341c-.01904533 1.345843 1.9995237 1.349216 1.9960937.013672h-.0039062v-12.0312499c-.0163961-.5374187-.4504717-.970649-.9921875-.9707031zm2.9785157 1v10.988281h1.0058593v1.273438c0 .726096.7265626.724609.7265626.724609h.2734374 1v-1.998047h1.9980469v1.994141h1.9999999v-1.994141h1.998047v-4.9941404h-.490234c-.400037.0015-.639806-.4446526-.417969-.7773437l1.474609-2.2207031h-1.05664c-.675923.0095499-.675923-1.0076003 0-.9980469h1.990234c.399153.0000851.637359.4434358.416016.7753906l-1.476563 2.2207031h1.060547c.011865-.0001666.019802.0054038.03125.0058594h1.46875v-4.3144531c0-.3807824-.311556-.6855469-.699219-.6855469zm2.0058593 1.9980469h3.9980468c.838573-.0003496 1.305222.968731.78125 1.6230469l-2.6992186 3.3710937h1.9179686c1.351845-.019111 1.351845 2.0171525 0 1.9980465h-3.9980468c-.8385731.000349-1.305222-.968731-.78125-1.6230465l2.6972657-3.3710937h-1.9160157c-1.3518457.019102-1.3518456-2.0171536 0-1.9980469z" fill="#444" opacity=".3"/>
  <path d="m14 8v4h2v-4zm0 5v2h2v-2z" fill="#4285f4"/>
</svg>

<svg xmlns="http://www.w3.org/2000/svg" width="16" height="16" version="1.1">
 <defs>
  <style id="current-color-scheme" type="text/css">
   .ColorScheme-Text { color:#444444; } .ColorScheme-Highlight { color:#4285f4; }
  </style>
 </defs>
 <path style="opacity:0.3;fill:currentColor" class="ColorScheme-Text" d="M 1.0195312 1 C -0.32982012 0.97408411 -0.3437201 3.0055241 1.0058594 2.9980469 L 1.0058594 13.988281 C 0.98681407 15.334124 3.0053831 15.337497 3.0019531 14.001953 L 2.9980469 14.001953 L 2.9980469 1.9707031 C 2.9816508 1.4332844 2.5475752 1.0000541 2.0058594 1 L 1.0195312 1 z M 3.9980469 2 L 3.9980469 12.988281 L 5.0039062 12.988281 L 5.0039062 14.261719 C 5.0039062 14.987815 5.7304688 14.986328 5.7304688 14.986328 L 6.0039062 14.986328 L 7.0039062 14.986328 L 7.0039062 12.988281 L 9.0019531 12.988281 L 9.0019531 14.982422 L 11.001953 14.982422 L 11.001953 12.988281 L 13 12.988281 L 13 7.9941406 L 12.509766 7.9941406 C 12.109729 7.9956406 11.86996 7.549488 12.091797 7.2167969 L 13.566406 4.9960938 L 12.509766 4.9960938 C 11.833843 5.0056437 11.833843 3.9884935 12.509766 3.9980469 L 14.5 3.9980469 C 14.899153 3.998132 15.137359 4.4414827 14.916016 4.7734375 L 13.439453 6.9941406 L 14.5 6.9941406 C 14.511865 6.993974 14.519802 6.9995444 14.53125 7 L 16 7 L 16 2.6855469 C 16 2.3047645 15.688444 2 15.300781 2 L 3.9980469 2 z M 6.0039062 3.9980469 L 10.001953 3.9980469 C 10.840526 3.9976973 11.307175 4.9667779 10.783203 5.6210938 L 8.0839844 8.9921875 L 10.001953 8.9921875 C 11.353798 8.9730765 11.353798 11.00934 10.001953 10.990234 L 6.0039062 10.990234 C 5.1653331 10.990583 4.6986842 10.021503 5.2226562 9.3671875 L 7.9199219 5.9960938 L 6.0039062 5.9960938 C 4.6520605 6.0151958 4.6520606 3.9789402 6.0039062 3.9980469 z"/>
 <path style="fill:currentColor" class="ColorScheme-Highlight" d="M 14 8 L 14 12 L 16 12 L 16 8 L 14 8 z M 14 13 L 14 15 L 16 15 L 16 13 L 14 13 z"/>
</svg>
